!!!SOCIAL_FUNCTION:	deer dance songs
!!!PDT:	1932
!!!OTL: No_68_Song_of_the_Buzzards.krn
!!!REG: Southwest
!!!LANG: Non-Tone
!!!LING_GROUP: Yuman-Cochimi
**kern
*staff1
=1-
*clefF4
*k[b-e-a-d-]
*M2/4
8A-\L
8A-\J
4A-\
=2
4A-\
8A-\
8r
=3
2d-\
=4!|:
(8d-\L
8c\J)
(8c\L
8B-\J)
=5
4B-\
8B-\L
8A-\J
=6
4B-\
8B-\
8r
=7
4A-\
4r
=8
4A-\
8A-\L
8A-\J
=9
4A-\
8A-\
8r
=10
4.d-\
8B-\
=11
8d-\L
8B-\J
8A-\L
8A-\J
=12
4A-\
8A-\L
8A-\J
=13
4A-\
4A-\
=14
4A-\
4r
=15
4.A-\
8A-\
=16
4c-\
8A-\L
8A-\J
=17
4A-\
8A-\L
8A-\J
=18
4A-\
4A-\
=19
4A-\
8r
8E-\
=20
2A-\
=21
8A-\L
8A-\J
8A-\L
8A-\J
=22
4A-\
8A-\L
8A-\J
=23
4A-\
4A-\
=24
4A-\
4r
=25
4r
4B-\
=26
4.d-\
8B-\
=27
8d-\L
8B-\J
8A-\L
8A-\J
=28
4A-\
8A-\L
8A-\J
=29
4A-\
4A-\
=30
4A-\
4r
=31
2A-\
=32
4B-\
8A-\L
8A-\J
=33
4A-\
8A-\L
8A-\J
=34
4A-\
4A-\
=35
4A-\
8r
8E-\
=36
2A-\
=37
8A-\L
8A-\J
8A-\L
8A-\J
=38
4A-\
8A-\L
8A-\J
=39
4A-\
8A-\L
8A-\J
=40
4A-\
4r
=41
4A-\
8A-\L
8A-\J
=42
8A-\L
8A-\J
8A-\
8r
==:|!
*-
